dist/img/svg/prog.svg

<svg width="34" height="34" viewBox="0 0 34 34" fill="none" xmlns="http://www.w3.org/2000/svg">
<path d="M17 0.554688L16.2969 1.02344L1.29688 11.0625L0.75 11.4141V22.5859L1.29688 22.9375L16.2969 32.9766L17 33.4453L17.7031 32.9766L32.7031 22.9375L33.25 22.5859V11.4141L32.7031 11.0625L17.7031 1.02344L17 0.554688ZM15.75 4.38281V11.1797L9.30469 15.5156L4.26562 12.1172L15.75 4.38281ZM18.25 4.38281L29.7344 12.1172L24.6953 15.5156L18.25 11.1797V4.38281ZM17 13.3672L22.4297 17L17 20.6328L11.5703 17L17 13.3672ZM3.25 14.4219L7.07812 17L3.25 19.5781V14.4219ZM30.75 14.4219V19.5781L26.9219 17L30.75 14.4219ZM9.34375 18.4844L15.75 22.8203V29.6172L4.26562 21.8828L9.34375 18.4844ZM24.6562 18.4844L29.7344 21.8828L18.25 29.6172V22.8203L24.6562 18.4844Z" fill="white"/>
</svg>

<svg width="34" height="34" viewBox="0 0 34 34" fill="none" xmlns="http://www.w3.org/2000/svg"><path d="M17 .555l-.703.468-15 10.04-.547.351v11.172l.547.352 15 10.039.703.468.703-.468 15-10.04.547-.351V11.414l-.547-.351-15-10.04L17 .555zm-1.25 3.828v6.797l-6.445 4.336-5.04-3.399L15.75 4.383zm2.5 0l11.484 7.734-5.039 3.399-6.445-4.336V4.383zM17 13.367L22.43 17 17 20.633 11.57 17 17 13.367zM3.25 14.422L7.078 17 3.25 19.578v-5.156zm27.5 0v5.156L26.922 17l3.828-2.578zM9.344 18.484l6.406 4.336v6.797L4.266 21.883l5.078-3.399zm15.312 0l5.078 3.399-11.484 7.734V22.82l6.406-4.336z" fill="#fff"/></svg>
